X:222
T:Paddy in London
T:The Four Courts
S:Jim Bevan
Z:robin.beech@mcgill.ca
R:jig
M:6/8
L:1/8
K:D
FDF ABc | dec def | AGF G2A | BGE EAG |
FDF ABc | dec def | AGF EAG |1 FDD DAG :|2 FDD Dgf |:
ecA Agf | edc d2A | G2E FGA | BGE Egf |
ecA gfe | dec def | AGF EAG |1 FDD Dgf :|2 FDD DAf |:
g3  f3  | fge def | gfe fga | bge eaf |
g3  f3  | gfe dec | Bcd edB |1 AFD DAf :|2 AFD D3 |]
